X:1
T:Star of Belle Isle
M:6/8
L:1/8
K:G
 z4 z D| FGA c A3/2 G/2|A/2-C/2 D4D/2-E/2| FGA c A3/2 c/2| c- d3/2- d/2- d d3/2- c/2|\
A-G A EDE|D/2-C/2 D2- D A3/2- G/2| EDC/2-A,/2 C D3/2 E/2| D3- D2 z|\
